;FLAVOR:UltiGCode
;TIME:297       
;MATERIAL:995       
;MATERIAL2:0         

;Layer count: 8
;LAYER:0
M107
G0 F4800 X5.700 Y-5.700 Z0.250
;TYPE:SKIRT
G1 F2100 X28.200 Y-5.700 E2.25000
G1 X28.200 Y5.700 E3.39000
G1 X5.700 Y5.700 E5.64000
G1 X5.700 Y28.200 E7.89000
G1 X-5.700 Y28.200 E9.03000
G1 X-5.700 Y5.700 E11.28000
G1 X-28.200 Y5.700 E13.53000
G1 X-28.200 Y-5.700 E14.67000
G1 X-5.700 Y-5.700 E16.92000
G1 X-5.700 Y-28.200 E19.17000
G1 X5.700 Y-28.200 E20.31000
G1 X5.700 Y-5.700 E22.56000
G10
G0 F4800 X1.500 Y-1.500
;TYPE:WALL-INNER
G11
G1 F2100 X24.000 Y-1.500 E24.81000
G1 X24.000 Y1.500 E25.11000
G1 X1.500 Y1.500 E27.36000
G1 X1.500 Y24.000 E29.61000
G1 X-1.500 Y24.000 E29.91000
G1 X-1.500 Y1.500 E32.16000
G1 X-24.000 Y1.500 E34.41000
G1 X-24.000 Y-1.500 E34.71000
G1 X-1.500 Y-1.500 E36.96000
G1 X-1.500 Y-24.000 E39.21000
G1 X1.500 Y-24.000 E39.51000
G1 X1.500 Y-1.500 E41.76000
G0 F4800 X1.900 Y-1.900
G1 F2100 X24.400 Y-1.900 E44.01000
G1 X24.400 Y1.900 E44.39000
G1 X1.900 Y1.900 E46.64000
G1 X1.900 Y24.400 E48.89000
G1 X-1.900 Y24.400 E49.27000
G1 X-1.900 Y1.900 E51.52000
G1 X-24.400 Y1.900 E53.77000
G1 X-24.400 Y-1.900 E54.15000
G1 X-1.900 Y-1.900 E56.40000
G1 X-1.900 Y-24.400 E58.65000
G1 X1.900 Y-24.400 E59.03000
G1 X1.900 Y-1.900 E61.28000
G0 F4800 X2.300 Y-2.300
;TYPE:WALL-OUTER
G1 F2100 X24.800 Y-2.300 E63.53000
G1 X24.800 Y2.300 E63.99000
G1 X2.300 Y2.300 E66.24000
G1 X2.300 Y24.800 E68.49000
G1 X-2.300 Y24.800 E68.95000
G1 X-2.300 Y2.300 E71.20000
G1 X-24.800 Y2.300 E73.45000
G1 X-24.800 Y-2.300 E73.91000
G1 X-2.300 Y-2.300 E76.16000
G1 X-2.300 Y-24.800 E78.41000
G1 X2.300 Y-24.800 E78.87000
G1 X2.300 Y-2.300 E81.12000
G0 F4800 X1.360 Y-2.316
;TYPE:FILL
G1 F2100 X-1.360 Y-5.037 E81.50474
G0 F4800 X-1.360 Y-4.471
G1 F2100 X1.360 Y-1.750 E81.88947
G0 F4800 X1.751 Y-1.359
G1 F2100 X4.471 Y1.359 E82.27400
G0 F4800 X5.036 Y1.359
G1 F2100 X2.317 Y-1.359 E82.65845
G0 F4800 X2.882 Y-1.359
G1 F2100 X5.602 Y1.359 E83.04298
G0 F4800 X6.168 Y1.359
G1 F2100 X3.448 Y-1.359 E83.42750
G0 F4800 X4.014 Y-1.359
G1 F2100 X6.733 Y1.359 E83.81196
G0 F4800 X7.299 Y1.359
G1 F2100 X4.579 Y-1.359 E84.19648
G0 F4800 X5.145 Y-1.359
G1 F2100 X7.865 Y1.359 E84.58101
G0 F4800 X8.430 Y1.359
G1 F2100 X5.711 Y-1.359 E84.96546
G0 F4800 X6.276 Y-1.359
G1 F2100 X8.996 Y1.359 E85.34998
G0 F4800 X9.562 Y1.359
G1 F2100 X6.842 Y-1.359 E85.73451
G0 F4800 X7.408 Y-1.359
G1 F2100 X10.127 Y1.359 E86.11896
G0 F4800 X10.693 Y1.359
G1 F2100 X7.974 Y-1.359 E86.50342
G0 F4800 X8.539 Y-1.359
G1 F2100 X11.259 Y1.359 E86.88794
G0 F4800 X11.824 Y1.359
G1 F2100 X9.105 Y-1.359 E87.27239
G0 F4800 X9.671 Y-1.359
G1 F2100 X12.390 Y1.359 E87.65685
G0 F4800 X12.956 Y1.359
G1 F2100 X10.236 Y-1.359 E88.04137
G0 F4800 X10.802 Y-1.359
G1 F2100 X13.522 Y1.359 E88.42590
G0 F4800 X14.087 Y1.359
G1 F2100 X11.368 Y-1.359 E88.81035
G0 F4800 X11.933 Y-1.359
G1 F2100 X14.653 Y1.359 E89.19488
G0 F4800 X15.219 Y1.359
G1 F2100 X12.499 Y-1.359 E89.57940
G0 F4800 X13.065 Y-1.359
G1 F2100 X15.784 Y1.359 E89.96386
G0 F4800 X16.350 Y1.359
G1 F2100 X13.630 Y-1.359 E90.34838
G0 F4800 X14.196 Y-1.359
G1 F2100 X16.916 Y1.359 E90.73290
G0 F4800 X17.481 Y1.359
G1 F2100 X14.762 Y-1.359 E91.11736
G0 F4800 X15.327 Y-1.359
G1 F2100 X18.047 Y1.359 E91.50188
G0 F4800 X18.613 Y1.359
G1 F2100 X15.893 Y-1.359 E91.88641
G0 F4800 X16.459 Y-1.359
G1 F2100 X19.178 Y1.359 E92.27086
G0 F4800 X19.744 Y1.359
G1 F2100 X17.025 Y-1.359 E92.65532
G0 F4800 X17.590 Y-1.359
G1 F2100 X20.310 Y1.359 E93.03984
G0 F4800 X20.875 Y1.359
G1 F2100 X18.156 Y-1.359 E93.42429
G0 F4800 X18.722 Y-1.359
G1 F2100 X21.441 Y1.359 E93.80875
G0 F4800 X22.007 Y1.359
G1 F2100 X19.287 Y-1.359 E94.19327
G0 F4800 X19.853 Y-1.359
G1 F2100 X22.572 Y1.359 E94.57773
G0 F4800 X23.138 Y1.359
G1 F2100 X20.419 Y-1.359 E94.96218
G0 F4800 X20.984 Y-1.359
G1 F2100 X23.704 Y1.359 E95.34671
G0 F4800 X23.859 Y0.948
G1 F2100 X21.550 Y-1.359 E95.67311
G0 F4800 X22.116 Y-1.359
G1 F2100 X23.859 Y0.383 E95.91953
G0 F4800 X23.859 Y-0.182
G1 F2100 X22.681 Y-1.359 E96.08606
G0 F4800 X23.247 Y-1.359
G1 F2100 X23.859 Y-0.748 E96.17254
G0 F4800 X3.905 Y1.359
G1 F2100 X-1.360 Y-3.906 E96.91712
G0 F4800 X-1.360 Y-3.340
G1 F2100 X3.339 Y1.359 E97.58166
G0 F4800 X2.773 Y1.359
G1 F2100 X-1.360 Y-2.774 E98.16615
G0 F4800 X-1.360 Y-2.209
G1 F2100 X2.208 Y1.359 E98.67074
G0 F4800 X1.642 Y1.359
G1 F2100 X-1.360 Y-1.643 E99.09529
G0 F4800 X-1.642 Y-1.359
G1 F2100 X1.360 Y1.643 E99.51984
G0 F4800 X1.360 Y2.209
G1 F2100 X-2.208 Y-1.359 E100.02443
G0 F4800 X-2.773 Y-1.359
G1 F2100 X1.360 Y2.774 E100.60892
G0 F4800 X1.360 Y3.340
G1 F2100 X-3.339 Y-1.359 E101.27346
G0 F4800 X-3.905 Y-1.359
G1 F2100 X1.360 Y3.906 E102.01805
G0 F4800 X1.360 Y4.471
G1 F2100 X-1.360 Y1.750 E102.40278
G0 F4800 X-1.751 Y1.359
G1 F2100 X-4.471 Y-1.359 E102.78731
G0 F4800 X-5.036 Y-1.359
G1 F2100 X-2.317 Y1.359 E103.17176
G0 F4800 X-2.882 Y1.359
G1 F2100 X-5.602 Y-1.359 E103.55629
G0 F4800 X-6.168 Y-1.359
G1 F2100 X-3.448 Y1.359 E103.94081
G0 F4800 X-4.014 Y1.359
G1 F2100 X-6.733 Y-1.359 E104.32527
G0 F4800 X-7.299 Y-1.359
G1 F2100 X-4.579 Y1.359 E104.70979
G0 F4800 X-5.145 Y1.359
G1 F2100 X-7.865 Y-1.359 E105.09431
G0 F4800 X-8.430 Y-1.359
G1 F2100 X-5.711 Y1.359 E105.47877
G0 F4800 X-6.276 Y1.359
G1 F2100 X-8.996 Y-1.359 E105.86329
G0 F4800 X-9.562 Y-1.359
G1 F2100 X-6.842 Y1.359 E106.24782
G0 F4800 X-7.408 Y1.359
G1 F2100 X-10.127 Y-1.359 E106.63227
G0 F4800 X-10.693 Y-1.359
G1 F2100 X-7.974 Y1.359 E107.01673
G0 F4800 X-8.539 Y1.359
G1 F2100 X-11.259 Y-1.359 E107.40125
G0 F4800 X-11.824 Y-1.359
G1 F2100 X-9.105 Y1.359 E107.78570
G0 F4800 X-9.671 Y1.359
G1 F2100 X-12.390 Y-1.359 E108.17016
G0 F4800 X-12.956 Y-1.359
G1 F2100 X-10.236 Y1.359 E108.55468
G0 F4800 X-10.802 Y1.359
G1 F2100 X-13.522 Y-1.359 E108.93921
G0 F4800 X-14.087 Y-1.359
G1 F2100 X-11.368 Y1.359 E109.32366
G0 F4800 X-11.933 Y1.359
G1 F2100 X-14.653 Y-1.359 E109.70819
G0 F4800 X-15.219 Y-1.359
G1 F2100 X-12.499 Y1.359 E110.09271
G0 F4800 X-13.065 Y1.359
G1 F2100 X-15.784 Y-1.359 E110.47717
G0 F4800 X-16.350 Y-1.359
G1 F2100 X-13.630 Y1.359 E110.86169
G0 F4800 X-14.196 Y1.359
G1 F2100 X-16.916 Y-1.359 E111.24621
G0 F4800 X-17.481 Y-1.359
G1 F2100 X-14.762 Y1.359 E111.63067
G0 F4800 X-15.327 Y1.359
G1 F2100 X-18.047 Y-1.359 E112.01519
G0 F4800 X-18.613 Y-1.359
G1 F2100 X-15.893 Y1.359 E112.39972
G0 F4800 X-16.459 Y1.359
G1 F2100 X-19.178 Y-1.359 E112.78417
G0 F4800 X-19.744 Y-1.359
G1 F2100 X-17.025 Y1.359 E113.16863
G0 F4800 X-17.590 Y1.359
G1 F2100 X-20.310 Y-1.359 E113.55315
G0 F4800 X-20.875 Y-1.359
G1 F2100 X-18.156 Y1.359 E113.93760
G0 F4800 X-18.722 Y1.359
G1 F2100 X-21.441 Y-1.359 E114.32206
G0 F4800 X-22.007 Y-1.359
G1 F2100 X-19.287 Y1.359 E114.70658
G0 F4800 X-19.853 Y1.359
G1 F2100 X-22.572 Y-1.359 E115.09104
G0 F4800 X-23.138 Y-1.359
G1 F2100 X-20.419 Y1.359 E115.47549
G0 F4800 X-20.984 Y1.359
G1 F2100 X-23.704 Y-1.359 E115.86002
G0 F4800 X-23.859 Y-0.948
G1 F2100 X-21.550 Y1.359 E116.18642
G0 F4800 X-22.116 Y1.359
G1 F2100 X-23.859 Y-0.383 E116.43284
G0 F4800 X-23.859 Y0.182
G1 F2100 X-22.681 Y1.359 E116.59937
G0 F4800 X-23.859 Y0.748
G1 F2100 X-23.247 Y1.359 E116.68585
G0 F4800 X-1.959 Y1.959
G0 X-1.360 Y2.316
G1 F2100 X1.360 Y5.037 E117.07058
G0 F4800 X1.360 Y5.603
G1 F2100 X-1.360 Y2.882 E117.45532
G0 F4800 X-1.360 Y3.447
G1 F2100 X1.360 Y6.168 E117.84006
G0 F4800 X1.360 Y6.734
G1 F2100 X-1.360 Y4.013 E118.22479
G0 F4800 X-1.360 Y4.579
G1 F2100 X1.360 Y7.300 E118.60953
G0 F4800 X1.360 Y7.865
G1 F2100 X-1.360 Y5.144 E118.99427
G0 F4800 X-1.360 Y5.710
G1 F2100 X1.360 Y8.431 E119.37900
G0 F4800 X1.360 Y8.997
G1 F2100 X-1.360 Y6.276 E119.76374
G0 F4800 X-1.360 Y6.841
G1 F2100 X1.360 Y9.562 E120.14848
G0 F4800 X1.360 Y10.128
G1 F2100 X-1.360 Y7.407 E120.53321
G0 F4800 X-1.360 Y7.973
G1 F2100 X1.360 Y10.694 E120.91795
G0 F4800 X1.360 Y11.259
G1 F2100 X-1.360 Y8.539 E121.30262
G0 F4800 X-1.360 Y9.104
G1 F2100 X1.360 Y11.825 E121.68735
G0 F4800 X1.360 Y12.391
G1 F2100 X-1.360 Y9.670 E122.07209
G0 F4800 X-1.360 Y10.236
G1 F2100 X1.360 Y12.957 E122.45683
G0 F4800 X1.360 Y13.522
G1 F2100 X-1.360 Y10.801 E122.84156
G0 F4800 X-1.360 Y11.367
G1 F2100 X1.360 Y14.088 E123.22630
G0 F4800 X1.360 Y14.654
G1 F2100 X-1.360 Y11.933 E123.61104
G0 F4800 X-1.360 Y12.498
G1 F2100 X1.360 Y15.219 E123.99577
G0 F4800 X1.360 Y15.785
G1 F2100 X-1.360 Y13.064 E124.38051
G0 F4800 X-1.360 Y13.630
G1 F2100 X1.360 Y16.351 E124.76525
G0 F4800 X1.360 Y16.916
G1 F2100 X-1.360 Y14.195 E125.14999
G0 F4800 X-1.360 Y14.761
G1 F2100 X1.360 Y17.482 E125.53472
G0 F4800 X1.360 Y18.048
G1 F2100 X-1.360 Y15.327 E125.91946
G0 F4800 X-1.360 Y15.892
G1 F2100 X1.360 Y18.613 E126.30420
G0 F4800 X1.360 Y19.179
G1 F2100 X-1.360 Y16.458 E126.68893
G0 F4800 X-1.360 Y17.024
G1 F2100 X1.360 Y19.745 E127.07367
G0 F4800 X1.360 Y20.310
G1 F2100 X-1.360 Y17.589 E127.45841
G0 F4800 X-1.360 Y18.155
G1 F2100 X1.360 Y20.876 E127.84314
G0 F4800 X1.360 Y21.442
G1 F2100 X-1.360 Y18.721 E128.22788
G0 F4800 X-1.360 Y19.287
G1 F2100 X1.360 Y22.007 E128.61255
G0 F4800 X1.360 Y22.573
G1 F2100 X-1.360 Y19.852 E128.99728
G0 F4800 X-1.360 Y20.418
G1 F2100 X1.360 Y23.139 E129.38202
G0 F4800 X1.360 Y23.705
G1 F2100 X-1.360 Y20.984 E129.76676
G0 F4800 X-1.360 Y21.549
G1 F2100 X0.948 Y23.859 E130.09330
G0 F4800 X0.383 Y23.859
G1 F2100 X-1.360 Y22.115 E130.33987
G0 F4800 X-1.360 Y22.681
G1 F2100 X-0.182 Y23.859 E130.50646
G0 F4800 X-1.360 Y23.246
G1 F2100 X-0.748 Y23.859 E130.59308
G0 F4800 X1.360 Y-2.882
G1 F2100 X-1.360 Y-5.603 E130.97782
G0 F4800 X-1.360 Y-6.168
G1 F2100 X1.360 Y-3.447 E131.36255
G0 F4800 X1.360 Y-4.013
G1 F2100 X-1.360 Y-6.734 E131.74729
G0 F4800 X-1.360 Y-7.300
G1 F2100 X1.360 Y-4.579 E132.13203
G0 F4800 X1.360 Y-5.144
G1 F2100 X-1.360 Y-7.865 E132.51677
G0 F4800 X-1.360 Y-8.431
G1 F2100 X1.360 Y-5.710 E132.90150
G0 F4800 X1.360 Y-6.276
G1 F2100 X-1.360 Y-8.997 E133.28624
G0 F4800 X-1.360 Y-9.562
G1 F2100 X1.360 Y-6.841 E133.67098
G0 F4800 X1.360 Y-7.407
G1 F2100 X-1.360 Y-10.128 E134.05571
G0 F4800 X-1.360 Y-10.694
G1 F2100 X1.360 Y-7.973 E134.44045
G0 F4800 X1.360 Y-8.539
G1 F2100 X-1.360 Y-11.259 E134.82512
G0 F4800 X-1.360 Y-11.825
G1 F2100 X1.360 Y-9.104 E135.20985
G0 F4800 X1.360 Y-9.670
G1 F2100 X-1.360 Y-12.391 E135.59459
G0 F4800 X-1.360 Y-12.957
G1 F2100 X1.360 Y-10.236 E135.97933
G0 F4800 X1.360 Y-10.801
G1 F2100 X-1.360 Y-13.522 E136.36406
G0 F4800 X-1.360 Y-14.088
G1 F2100 X1.360 Y-11.367 E136.74880
G0 F4800 X1.360 Y-11.933
G1 F2100 X-1.360 Y-14.654 E137.13354
G0 F4800 X-1.360 Y-15.219
G1 F2100 X1.360 Y-12.498 E137.51827
G0 F4800 X1.360 Y-13.064
G1 F2100 X-1.360 Y-15.785 E137.90301
G0 F4800 X-1.360 Y-16.351
G1 F2100 X1.360 Y-13.630 E138.28775
G0 F4800 X1.360 Y-14.195
G1 F2100 X-1.360 Y-16.916 E138.67248
G0 F4800 X-1.360 Y-17.482
G1 F2100 X1.360 Y-14.761 E139.05722
G0 F4800 X1.360 Y-15.327
G1 F2100 X-1.360 Y-18.048 E139.44196
G0 F4800 X-1.360 Y-18.613
G1 F2100 X1.360 Y-15.892 E139.82669
G0 F4800 X1.360 Y-16.458
G1 F2100 X-1.360 Y-19.179 E140.21143
G0 F4800 X-1.360 Y-19.745
G1 F2100 X1.360 Y-17.024 E140.59617
G0 F4800 X1.360 Y-17.589
G1 F2100 X-1.360 Y-20.310 E140.98090
G0 F4800 X-1.360 Y-20.876
G1 F2100 X1.360 Y-18.155 E141.36564
G0 F4800 X1.360 Y-18.721
G1 F2100 X-1.360 Y-21.442 E141.75038
G0 F4800 X-1.360 Y-22.007
G1 F2100 X1.360 Y-19.287 E142.13504
G0 F4800 X1.360 Y-19.852
G1 F2100 X-1.360 Y-22.573 E142.51978
G0 F4800 X-1.360 Y-23.139
G1 F2100 X1.360 Y-20.418 E142.90452
G0 F4800 X1.360 Y-20.984
G1 F2100 X-1.360 Y-23.705 E143.28925
G0 F4800 X-0.948 Y-23.859
G1 F2100 X1.360 Y-21.549 E143.61580
G0 F4800 X1.360 Y-22.115
G1 F2100 X-0.383 Y-23.859 E143.86236
G0 F4800 X0.182 Y-23.859
G1 F2100 X1.360 Y-22.681 E144.02896
G0 F4800 X0.748 Y-23.859
G1 F2100 X1.360 Y-23.246 E144.11558
;LAYER:1
M106 S255
G0 F4800 X1.503 Y-24.003 Z0.500
;TYPE:WALL-INNER
G1 F2160 X1.503 Y-1.503 E146.35995
G1 X24.003 Y-1.503 E148.60433
G1 X24.003 Y1.503 E148.90418
G1 X1.503 Y1.503 E151.14855
G1 X1.503 Y24.003 E153.39293
G1 X-1.503 Y24.003 E153.69278
G1 X-1.503 Y1.503 E155.93715
G1 X-24.003 Y1.503 E158.18153
G1 X-24.003 Y-1.503 E158.48137
G1 X-1.503 Y-1.503 E160.72575
G1 X-1.503 Y-24.003 E162.97012
G1 X1.503 Y-24.003 E163.26997
G0 F4800 X1.902 Y-24.402
G1 F2160 X1.902 Y-1.902 E165.51435
G1 X24.402 Y-1.902 E167.75872
G1 X24.402 Y1.902 E168.13817
G1 X1.902 Y1.902 E170.38255
G1 X1.902 Y24.402 E172.62692
G1 X-1.902 Y24.402 E173.00637
G1 X-1.902 Y1.902 E175.25075
G1 X-24.402 Y1.902 E177.49512
G1 X-24.402 Y-1.902 E177.87457
G1 X-1.902 Y-1.902 E180.11895
G1 X-1.902 Y-24.402 E182.36332
G1 X1.902 Y-24.402 E182.74277
G0 F4800 X2.301 Y-24.801
;TYPE:WALL-OUTER
G1 F2160 X2.301 Y-2.301 E184.98714
G1 X24.801 Y-2.301 E187.23152
G1 X24.801 Y2.301 E187.69057
G1 X2.301 Y2.301 E189.93494
G1 X2.301 Y24.801 E192.17932
G1 X-2.301 Y24.801 E192.63837
G1 X-2.301 Y2.301 E194.88274
G1 X-24.801 Y2.301 E197.12712
G1 X-24.801 Y-2.301 E197.58617
G1 X-2.301 Y-2.301 E199.83054
G1 X-2.301 Y-24.801 E202.07492
G1 X2.301 Y-24.801 E202.53397
G0 F4800 X1.362 Y-23.650
;TYPE:FILL
G1 F2280 X-1.362 Y-20.925 E202.91831
G0 F4800 X-1.362 Y-20.361
G1 F2280 X1.362 Y-23.086 E203.30265
G0 F4800 X1.362 Y-22.522
G1 F2280 X-1.362 Y-19.796 E203.68706
G0 F4800 X-1.362 Y-19.232
G1 F2280 X1.362 Y-21.957 E204.07139
G0 F4800 X1.362 Y-21.393
G1 F2280 X-1.362 Y-18.668 E204.45573
G0 F4800 X-1.362 Y-18.104
G1 F2280 X1.362 Y-20.829 E204.84007
G0 F4800 X1.362 Y-20.264
G1 F2280 X-1.362 Y-17.539 E205.22441
G0 F4800 X-1.362 Y-16.975
G1 F2280 X1.362 Y-19.700 E205.60875
G0 F4800 X1.362 Y-19.136
G1 F2280 X-1.362 Y-16.411 E205.99309
G0 F4800 X-1.362 Y-15.846
G1 F2280 X1.362 Y-18.572 E206.37750
G0 F4800 X1.362 Y-18.007
G1 F2280 X-1.362 Y-15.282 E206.76184
G0 F4800 X-1.362 Y-14.718
G1 F2280 X1.362 Y-17.443 E207.14618
G0 F4800 X1.362 Y-16.879
G1 F2280 X-1.362 Y-14.154 E207.53052
G0 F4800 X-1.362 Y-13.589
G1 F2280 X1.362 Y-16.315 E207.91493
G0 F4800 X1.362 Y-15.750
G1 F2280 X-1.362 Y-13.025 E208.29927
G0 F4800 X-1.362 Y-12.461
G1 F2280 X1.362 Y-15.186 E208.68361
G0 F4800 X1.362 Y-14.622
G1 F2280 X-1.362 Y-11.897 E209.06795
G0 F4800 X-1.362 Y-11.332
G1 F2280 X1.362 Y-14.057 E209.45229
G0 F4800 X1.362 Y-13.493
G1 F2280 X-1.362 Y-10.768 E209.83662
G0 F4800 X-1.362 Y-10.204
G1 F2280 X1.362 Y-12.929 E210.22096
G0 F4800 X1.362 Y-12.365
G1 F2280 X-1.362 Y-9.639 E210.60537
G0 F4800 X-1.362 Y-9.075
G1 F2280 X1.362 Y-11.800 E210.98971
G0 F4800 X1.362 Y-11.236
G1 F2280 X-1.362 Y-8.511 E211.37405
G0 F4800 X-1.362 Y-7.947
G1 F2280 X1.362 Y-10.672 E211.75839
G0 F4800 X1.362 Y-10.108
G1 F2280 X-1.362 Y-7.382 E212.14280
G0 F4800 X-1.362 Y-6.818
G1 F2280 X1.362 Y-9.543 E212.52714
G0 F4800 X1.362 Y-8.979
G1 F2280 X-1.362 Y-6.254 E212.91148
G0 F4800 X-1.362 Y-5.690
G1 F2280 X1.362 Y-8.415 E213.29582
G0 F4800 X1.362 Y-7.851
G1 F2280 X-1.362 Y-5.125 E213.68023
G0 F4800 X-1.362 Y-4.561
G1 F2280 X1.362 Y-7.286 E214.06457
G0 F4800 X1.362 Y-6.722
G1 F2280 X-1.362 Y-3.997 E214.44891
G0 F4800 X-1.362 Y-3.433
G1 F2280 X1.362 Y-6.158 E214.83325
G0 F4800 X1.362 Y-5.593
G1 F2280 X-1.362 Y-2.868 E215.21759
G0 F4800 X-1.362 Y-2.304
G1 F2280 X1.362 Y-5.029 E215.60192
G0 F4800 X1.362 Y-4.465
G1 F2280 X-1.362 Y-1.740 E215.98626
G0 F4800 X-1.739 Y-1.363
G1 F2280 X-4.466 Y1.363 E216.37089
G0 F4800 X-5.030 Y1.363
G1 F2280 X-2.303 Y-1.363 E216.75551
G0 F4800 X-2.868 Y-1.363
G1 F2280 X-5.594 Y1.363 E217.14006
G0 F4800 X-6.158 Y1.363
G1 F2280 X-3.432 Y-1.363 E217.52461
G0 F4800 X-3.996 Y-1.363
G1 F2280 X-6.723 Y1.363 E217.90923
G0 F4800 X-7.287 Y1.363
G1 F2280 X-4.560 Y-1.363 E218.29385
G0 F4800 X-5.125 Y-1.363
G1 F2280 X-7.851 Y1.363 E218.67840
G0 F4800 X-8.415 Y1.363
G1 F2280 X-5.689 Y-1.363 E219.06295
G0 F4800 X-6.253 Y-1.363
G1 F2280 X-8.980 Y1.363 E219.44757
G0 F4800 X-9.544 Y1.363
G1 F2280 X-6.817 Y-1.363 E219.83220
G0 F4800 X-7.382 Y-1.363
G1 F2280 X-10.108 Y1.363 E220.21675
G0 F4800 X-10.673 Y1.363
G1 F2280 X-7.946 Y-1.363 E220.60137
G0 F4800 X-8.510 Y-1.363
G1 F2280 X-11.237 Y1.363 E220.98599
G0 F4800 X-11.801 Y1.363
G1 F2280 X-9.075 Y-1.363 E221.37054
G0 F4800 X-9.639 Y-1.363
G1 F2280 X-12.365 Y1.363 E221.75509
G0 F4800 X-12.930 Y1.363
G1 F2280 X-10.203 Y-1.363 E222.13971
